src/spellingbee/logo.svg

<?xml version="1.0" encoding="UTF-8"?>
<svg xmlns="http://www.w3.org/2000/svg" xmlns:xlink="http://www.w3.org/1999/xlink" width="2000" height="2000" viewBox="0 0 2000 2000">
<path fill-rule="evenodd" fill="rgb(95.701599%, 96.875%, 98.046875%)" fill-opacity="1" d="M 0 0.078125 L 1999.921875 0.078125 L 1999.921875 2000 L 0 2000 L 0 0.078125 "/>
<path fill-rule="evenodd" fill="rgb(95.701599%, 96.875%, 98.046875%)" fill-opacity="1" d="M 1908.238281 1915.15625 L 1889.179688 1915.15625 C 1888.300781 1915.15625 1887.589844 1915.871094 1887.589844 1916.746094 L 1887.589844 1935.800781 C 1887.589844 1936.679688 1888.300781 1937.394531 1889.179688 1937.394531 L 1908.238281 1937.394531 C 1909.109375 1937.394531 1909.828125 1936.679688 1909.828125 1935.800781 L 1909.828125 1916.746094 C 1909.828125 1915.871094 1909.109375 1915.15625 1908.238281 1915.15625 "/>
<path fill-rule="evenodd" fill="rgb(95.701599%, 96.875%, 98.046875%)" fill-opacity="1" d="M 1865.28125 1916.171875 L 1847.089844 1916.171875 C 1846.261719 1916.171875 1845.578125 1916.855469 1845.578125 1917.691406 L 1845.578125 1935.875 C 1845.578125 1936.710938 1846.261719 1937.394531 1847.089844 1937.394531 L 1865.28125 1937.394531 C 1866.109375 1937.394531 1866.800781 1936.710938 1866.800781 1935.875 L 1866.800781 1917.691406 C 1866.800781 1916.855469 1866.109375 1916.171875 1865.28125 1916.171875 "/>
<path fill-rule="evenodd" fill="rgb(95.701599%, 96.875%, 98.046875%)" fill-opacity="1" d="M 1822.320312 1917.1875 L 1805.011719 1917.1875 C 1804.210938 1917.1875 1803.558594 1917.839844 1803.558594 1918.636719 L 1803.558594 1935.949219 C 1803.558594 1936.742188 1804.210938 1937.394531 1805.011719 1937.394531 L 1822.320312 1937.394531 C 1823.121094 1937.394531 1823.769531 1936.742188 1823.769531 1935.949219 L 1823.769531 1918.636719 C 1823.769531 1917.839844 1823.121094 1917.1875 1822.320312 1917.1875 "/>
<path fill-rule="evenodd" fill="rgb(95.701599%, 96.875%, 98.046875%)" fill-opacity="1" d="M 1779.371094 1918.207031 L 1762.929688 1918.207031 C 1762.171875 1918.207031 1761.550781 1918.824219 1761.550781 1919.582031 L 1761.550781 1936.019531 C 1761.550781 1936.777344 1762.171875 1937.394531 1762.929688 1937.394531 L 1779.371094 1937.394531 C 1780.121094 1937.394531 1780.738281 1936.777344 1780.738281 1936.019531 L 1780.738281 1919.582031 C 1780.738281 1918.824219 1780.121094 1918.207031 1779.371094 1918.207031 "/>
<path fill-rule="evenodd" fill="rgb(95.701599%, 96.875%, 98.046875%)" fill-opacity="1" d="M 1736.410156 1919.222656 L 1720.839844 1919.222656 C 1720.128906 1919.222656 1719.539062 1919.808594 1719.539062 1920.523438 L 1719.539062 1936.09375 C 1719.539062 1936.808594 1720.128906 1937.394531 1720.839844 1937.394531 L 1736.410156 1937.394531 C 1737.128906 1937.394531 1737.710938 1936.808594 1737.710938 1936.09375 L 1737.710938 1920.523438 C 1737.710938 1919.808594 1737.128906 1919.222656 1736.410156 1919.222656 "/>
<path fill-rule="evenodd" fill="rgb(95.701599%, 96.875%, 98.046875%)" fill-opacity="1" d="M 1693.460938 1920.238281 L 1678.761719 1920.238281 C 1678.078125 1920.238281 1677.53125 1920.792969 1677.53125 1921.46875 L 1677.53125 1936.167969 C 1677.53125 1936.84375 1678.078125 1937.394531 1678.761719 1937.394531 L 1693.460938 1937.394531 C 1694.128906 1937.394531 1694.679688 1936.84375 1694.679688 1936.167969 L 1694.679688 1921.46875 C 1694.679688 1920.792969 1694.128906 1920.238281 1693.460938 1920.238281 "/>
<path fill-rule="evenodd" fill="rgb(95.701599%, 96.875%, 98.046875%)" fill-opacity="1" d="M 1650.5 1921.257812 L 1636.671875 1921.257812 C 1636.039062 1921.257812 1635.519531 1921.777344 1635.519531 1922.414062 L 1635.519531 1936.238281 C 1635.519531 1936.875 1636.039062 1937.394531 1636.671875 1937.394531 L 1650.5 1937.394531 C 1651.140625 1937.394531 1651.648438 1936.875 1651.648438 1936.238281 L 1651.648438 1922.414062 C 1651.648438 1921.777344 1651.140625 1921.257812 1650.5 1921.257812 "/>
<path fill-rule="evenodd" fill="rgb(95.701599%, 96.875%, 98.046875%)" fill-opacity="1" d="M 1607.539062 1922.273438 L 1594.589844 1922.273438 C 1593.988281 1922.273438 1593.511719 1922.761719 1593.511719 1923.355469 L 1593.511719 1936.3125 C 1593.511719 1936.90625 1593.988281 1937.394531 1594.589844 1937.394531 L 1607.539062 1937.394531 C 1608.140625 1937.394531 1608.628906 1936.90625 1608.628906 1936.3125 L 1608.628906 1923.355469 C 1608.628906 1922.761719 1608.140625 1922.273438 1607.539062 1922.273438 "/>
<path fill-rule="evenodd" fill="rgb(95.701599%, 96.875%, 98.046875%)" fill-opacity="1" d="M 1564.589844 1923.292969 L 1552.5 1923.292969 C 1551.949219 1923.292969 1551.488281 1923.746094 1551.488281 1924.300781 L 1551.488281 1936.386719 C 1551.488281 1936.941406 1551.949219 1937.394531 1552.5 1937.394531 L 1564.589844 1937.394531 C 1565.140625 1937.394531 1565.601562 1936.941406 1565.601562 1936.386719 L 1565.601562 1924.300781 C 1565.601562 1923.746094 1565.140625 1923.292969 1564.589844 1923.292969 "/>
<path fill-rule="evenodd" fill="rgb(24.31488%, 27.050781%, 30.589294%)" fill-opacity="1" d="M 987.980469 713.691406 C 554.203125 1238.746094 744.804688 1513.925781 965.957031 1539.535156 L 965.957031 1622.691406 C 965.957031 1641.558594 981.246094 1656.847656 1000.109375 1656.847656 C 1018.96875 1656.847656 1034.269531 1641.558594 1034.269531 1622.691406 L 1034.269531 1539.535156 C 1255.410156 1513.957031 1446.019531 1238.753906 1012.261719 713.710938 C 1080.390625 715.25 1150.449219 729.371094 1254.820312 756 C 1255.660156 747.679688 1256.089844 739.351562 1256.089844 731.050781 C 1256.089844 660.308594 1227.410156 596.269531 1181.050781 549.921875 C 1162.878906 531.738281 1141.980469 516.28125 1119.03125 504.210938 C 1121.730469 488.789062 1127.308594 473.96875 1134.710938 460.710938 C 1143.488281 444.960938 1154.480469 431.839844 1165.96875 422.851562 C 1175.21875 415.609375 1184.011719 411.378906 1190.929688 411.328125 C 1192.339844 411.328125 1193.628906 411.609375 1194.710938 412.210938 C 1211.171875 421.378906 1231.941406 415.480469 1241.109375 399.03125 C 1250.289062 382.578125 1244.378906 361.808594 1227.929688 352.628906 C 1216.300781 346.140625 1203.660156 343.148438 1190.511719 343.230469 C 1168.078125 343.371094 1144.898438 352.929688 1124.050781 369.25 C 1105.441406 383.820312 1088.210938 404.03125 1075.128906 427.488281 C 1066.089844 443.699219 1058.871094 461.679688 1054.359375 480.679688 C 1036.808594 476.878906 1018.601562 474.878906 999.917969 474.878906 C 972.78125 474.878906 946.632812 479.109375 922.089844 486.929688 C 917.746094 465.621094 909.960938 445.46875 899.9375 427.488281 C 886.855469 404.03125 869.621094 383.820312 851.011719 369.25 C 830.164062 352.929688 806.984375 343.371094 784.550781 343.230469 C 771.40625 343.148438 758.769531 346.148438 747.132812 352.628906 C 730.679688 361.808594 724.78125 382.578125 733.953125 399.03125 C 743.125 415.480469 763.898438 421.378906 780.351562 412.210938 C 781.4375 411.609375 782.722656 411.328125 784.140625 411.328125 C 791.058594 411.378906 799.851562 415.609375 809.097656 422.851562 C 820.582031 431.839844 831.578125 444.960938 840.359375 460.710938 C 849.9375 477.890625 856.476562 497.679688 857.644531 518 C 843.65625 527.359375 830.640625 538.058594 818.785156 549.921875 C 772.425781 596.269531 743.753906 660.308594 743.753906 731.050781 C 743.753906 739.328125 744.175781 747.621094 745.007812 755.910156 C 849.605469 729.191406 919.761719 715.140625 987.980469 713.691406 "/>
<path fill-rule="evenodd" fill="rgb(95.701599%, 96.875%, 98.046875%)" fill-opacity="1" d="M 729.730469 1218.910156 C 726.722656 1248.734375 726.789062 1276.578125 729.78125 1302.269531 C 821.863281 1314.699219 913.363281 1320.382812 1004.328125 1319.914062 C 1093.621094 1319.453125 1182.328125 1313.074219 1270.511719 1301.34375 C 1273.429688 1275.664062 1273.488281 1247.871094 1270.421875 1218.078125 C 1182.011719 1230.597656 1093.191406 1237.414062 1003.910156 1237.875 C 913.09375 1238.34375 821.71875 1232.25 729.730469 1218.910156 "/>
<path fill-rule="evenodd" fill="rgb(95.701599%, 96.875%, 98.046875%)" fill-opacity="1" d="M 793.355469 1008.652344 C 780.460938 1035.890625 769.570312 1062.113281 760.679688 1087.273438 C 842.265625 1098.898438 923.355469 1104.214844 1003.980469 1103.761719 C 1082.878906 1103.316406 1161.28125 1097.355469 1239.230469 1086.390625 C 1230.300781 1061.234375 1219.378906 1035.011719 1206.449219 1007.785156 C 1139.109375 1016.566406 1071.5 1021.335938 1003.609375 1021.722656 C 933.886719 1022.113281 863.816406 1017.890625 793.355469 1008.652344 "/>
<path fill-rule="nonzero" fill="rgb(95.701599%, 96.875%, 98.046875%)" fill-opacity="1" d="M 1045.761719 691.410156 C 1436.890625 661.808594 1656.269531 776.101562 1755.25 918.039062 C 1834.820312 1032.148438 1837.179688 1164.488281 1788.769531 1258.570312 C 1738.230469 1356.804688 1634.410156 1414.4375 1504.921875 1372.46875 C 1359.949219 1325.480469 1181.121094 1145.953125 1016.738281 738.078125 L 999.347656 694.929688 L 1045.761719 691.410156 "/>
<path fill="none" stroke-width="239.998" stroke-linecap="round" stroke-linejoin="round" stroke="rgb(24.31488%, 27.050781%, 30.589294%)" stroke-opacity="1" stroke-miterlimit="2.61313" d="M 10457.617188 13085.898438 C 14368.90625 13381.914062 16562.695312 12238.984375 17552.5 10819.609375 C 18348.203125 9678.515625 18371.796875 8355.117188 17887.695312 7414.296875 C 17382.304688 6431.953125 16344.101562 5855.625 15049.21875 6275.3125 C 13599.492188 6745.195312 11811.210938 8540.46875 10167.382812 12619.21875 L 9993.476562 13050.703125 Z M 10457.617188 13085.898438 " transform="matrix(0.1, 0, 0, -0.1, 0, 2000)"/>
<path fill-rule="nonzero" fill="rgb(95.701599%, 96.875%, 98.046875%)" fill-opacity="1" d="M 954.164062 691.410156 C 563.023438 661.808594 343.652344 776.101562 244.671875 918.039062 C 165.101562 1032.148438 162.742188 1164.488281 211.148438 1258.570312 C 261.691406 1356.804688 365.511719 1414.4375 495.003906 1372.46875 C 639.972656 1325.480469 818.804688 1145.953125 983.183594 738.078125 L 1000.570312 694.929688 L 954.164062 691.410156 "/>
<path fill="none" stroke-width="239.998" stroke-linecap="round" stroke-linejoin="round" stroke="rgb(24.31488%, 27.050781%, 30.589294%)" stroke-opacity="1" stroke-miterlimit="2.61313" d="M 9541.640625 13085.898438 C 5630.234375 13381.914062 3436.523438 12238.984375 2446.71875 10819.609375 C 1651.015625 9678.515625 1627.421875 8355.117188 2111.484375 7414.296875 C 2616.914062 6431.953125 3655.117188 5855.625 4950.039062 6275.3125 C 6399.726562 6745.195312 8188.046875 8540.46875 9831.835938 12619.21875 L 10005.703125 13050.703125 Z M 9541.640625 13085.898438 " transform="matrix(0.1, 0, 0, -0.1, 0, 2000)"/>
</svg>

<!-- spellingbee logo: the bee on a rounded rect in the game's accent
     yellow (#f7da21) with the thin darker accent-edge border (#a86b00),
     mirroring how the center hex is drawn (theme.css tokens; SVG files
     can't read CSS custom properties, so the hex values are inlined).
     Cleaned with svgo; the original's full-canvas near-white background
     and an invisible watermark row of tiny squares were dropped. -->
<svg xmlns="http://www.w3.org/2000/svg" role="img" aria-label="spellingbee" viewBox="0 0 2000 2000">
    <rect x="30" y="30" width="1940" height="1940" rx="240" fill="#f7da21" stroke="#a86b00" stroke-width="60"/>
    <path fill="#3e454e" fill-rule="evenodd" d="M987.98 713.691c-433.777 525.055-243.175 800.235-22.023 825.844v83.156c0 18.868 15.29 34.157 34.152 34.157 18.86 0 34.16-15.29 34.16-34.157v-83.156c221.141-25.578 411.75-300.781-22.007-825.824 68.129 1.539 138.187 15.66 242.558 42.289.84-8.32 1.27-16.648 1.27-24.95 0-70.741-28.68-134.78-75.04-181.128a256.6 256.6 0 0 0-62.019-45.711c2.7-15.422 8.278-30.242 15.68-43.5 8.777-15.75 19.77-28.871 31.258-37.86 9.25-7.242 18.043-11.472 24.96-11.523 1.41 0 2.7.281 3.782.883 16.46 9.168 37.23 3.27 46.398-13.18 9.18-16.453 3.27-37.222-13.18-46.402-11.628-6.488-24.269-9.48-37.417-9.399-22.434.141-45.614 9.7-66.461 26.02-18.61 14.57-35.84 34.781-48.922 58.238-9.04 16.211-16.258 34.192-20.77 53.192-17.55-3.801-35.757-5.801-54.441-5.801-27.137 0-53.285 4.23-77.828 12.05-4.344-21.308-12.13-41.46-22.153-59.44-13.082-23.458-30.316-43.669-48.925-58.239-20.848-16.32-44.028-25.879-66.461-26.02-13.145-.082-25.781 2.918-37.418 9.399-16.453 9.18-22.352 29.95-13.18 46.402 9.172 16.45 29.945 22.348 46.399 13.18 1.086-.602 2.37-.883 3.789-.883 6.918.05 15.71 4.281 24.957 11.524 11.484 8.988 22.48 22.109 31.261 37.859 9.578 17.18 16.118 36.969 17.286 57.289a257 257 0 0 0-38.86 31.922c-46.36 46.348-75.031 110.387-75.031 181.129 0 8.277.422 16.57 1.254 24.86 104.597-26.72 174.754-40.77 242.972-42.22"/>
    <path fill="#f4f7fa" fill-rule="evenodd" d="M729.73 1218.91c-3.007 29.824-2.94 57.668.051 83.36 92.082 12.43 183.582 18.113 274.547 17.644 89.293-.46 178-6.84 266.184-18.57 2.918-25.68 2.976-53.473-.09-83.266-88.41 12.52-177.23 19.336-266.512 19.797-90.816.469-182.191-5.625-274.18-18.965m63.625-210.258c-12.894 27.239-23.785 53.461-32.675 78.621 81.586 11.625 162.675 16.942 243.3 16.489 78.899-.446 157.301-6.407 235.25-17.371-8.93-25.157-19.851-51.38-32.78-78.606-67.34 8.781-134.95 13.55-202.84 13.938-69.723.39-139.794-3.832-210.255-13.07"/>
    <path fill="#f4f7fa" d="M1045.762 691.41c391.129-29.601 610.508 84.692 709.488 226.63 79.57 114.108 81.93 246.448 33.52 340.53-50.54 98.235-154.36 155.868-283.848 113.899-144.973-46.989-323.8-226.516-488.184-634.39l-17.39-43.15z"/>
    <path fill="none" stroke="#3e454e" stroke-linecap="round" stroke-linejoin="round" stroke-miterlimit="2.613" stroke-width="239.998" d="M10457.617 13085.898c3911.29 296.016 6105.078-846.914 7094.883-2266.289 795.703-1141.093 819.297-2464.492 335.195-3405.312-505.39-982.344-1543.593-1558.672-2838.476-1138.984-1449.727 469.882-3238.008 2265.156-4881.836 6343.906l-173.906 431.484Zm0 0" style="stroke-width:540.0000153;stroke-dasharray:none" transform="matrix(.1 0 0 -.1 0 2000)"/>
    <path fill="#f4f7fa" d="M954.164 691.41c-391.14-29.601-610.512 84.692-709.492 226.63-79.57 114.108-81.93 246.448-33.524 340.53 50.543 98.235 154.364 155.868 283.856 113.899 144.969-46.989 323.8-226.516 488.18-634.39l17.386-43.15z"/>
    <path fill="none" stroke="#3e454e" stroke-linecap="round" stroke-linejoin="round" stroke-miterlimit="2.613" stroke-width="239.998" d="M9541.64 13085.898c-3911.406 296.016-6105.117-846.914-7094.921-2266.289-795.703-1141.093-819.297-2464.492-335.235-3405.312 505.43-982.344 1543.633-1558.672 2838.555-1138.984 1449.688 469.882 3238.008 2265.156 4881.797 6343.906l173.867 431.484Zm0 0" style="stroke-width:540.0000153;stroke-dasharray:none" transform="matrix(.1 0 0 -.1 0 2000)"/>
</svg>
